packages/ffe-icons/icons/open/400/sm/border_bottom.svg

<svg xmlns="http://www.w3.org/2000/svg" height="20" viewBox="0 -960 960 960" width="20"><path d="M480.211-594Q465-594 454.5-604.289q-10.5-10.29-10.5-25.5Q444-645 454.289-655.5q10.29-10.5 25.5-10.5Q495-666 505.5-655.711q10.5 10.29 10.5 25.5Q516-615 505.711-604.5q-10.29 10.5-25.5 10.5Zm-150 150Q315-444 304.5-454.289q-10.5-10.29-10.5-25.5Q294-495 304.289-505.5q10.29-10.5 25.5-10.5Q345-516 355.5-505.711q10.5 10.29 10.5 25.5Q366-465 355.711-454.5q-10.29 10.5-25.5 10.5Zm150 0Q465-444 454.5-454.289q-10.5-10.29-10.5-25.5Q444-495 454.289-505.5q10.29-10.5 25.5-10.5Q495-516 505.5-505.711q10.5 10.29 10.5 25.5Q516-465 505.711-454.5q-10.29 10.5-25.5 10.5Zm150 0Q615-444 604.5-454.289q-10.5-10.29-10.5-25.5Q594-495 604.289-505.5q10.29-10.5 25.5-10.5Q645-516 655.5-505.711q10.5 10.29 10.5 25.5Q666-465 655.711-454.5q-10.29 10.5-25.5 10.5Zm-150 150Q465-294 454.5-304.289q-10.5-10.29-10.5-25.5Q444-345 454.289-355.5q10.29-10.5 25.5-10.5Q495-366 505.5-355.711q10.5 10.29 10.5 25.5Q516-315 505.711-304.5q-10.29 10.5-25.5 10.5Zm-300-450Q165-744 154.5-754.289q-10.5-10.29-10.5-25.5Q144-795 154.289-805.5q10.29-10.5 25.5-10.5Q195-816 205.5-805.711q10.5 10.29 10.5 25.5Q216-765 205.711-754.5q-10.29 10.5-25.5 10.5Zm150 0Q315-744 304.5-754.289q-10.5-10.29-10.5-25.5Q294-795 304.289-805.5q10.29-10.5 25.5-10.5Q345-816 355.5-805.711q10.5 10.29 10.5 25.5Q366-765 355.711-754.5q-10.29 10.5-25.5 10.5Zm150 0Q465-744 454.5-754.289q-10.5-10.29-10.5-25.5Q444-795 454.289-805.5q10.29-10.5 25.5-10.5Q495-816 505.5-805.711q10.5 10.29 10.5 25.5Q516-765 505.711-754.5q-10.29 10.5-25.5 10.5Zm150 0Q615-744 604.5-754.289q-10.5-10.29-10.5-25.5Q594-795 604.289-805.5q10.29-10.5 25.5-10.5Q645-816 655.5-805.711q10.5 10.29 10.5 25.5Q666-765 655.711-754.5q-10.29 10.5-25.5 10.5Zm150 0Q765-744 754.5-754.289q-10.5-10.29-10.5-25.5Q744-795 754.289-805.5q10.29-10.5 25.5-10.5Q795-816 805.5-805.711q10.5 10.29 10.5 25.5Q816-765 805.711-754.5q-10.29 10.5-25.5 10.5Zm-600 150Q165-594 154.5-604.289q-10.5-10.29-10.5-25.5Q144-645 154.289-655.5q10.29-10.5 25.5-10.5Q195-666 205.5-655.711q10.5 10.29 10.5 25.5Q216-615 205.711-604.5q-10.29 10.5-25.5 10.5Zm600 0Q765-594 754.5-604.289q-10.5-10.29-10.5-25.5Q744-645 754.289-655.5q10.29-10.5 25.5-10.5Q795-666 805.5-655.711q10.5 10.29 10.5 25.5Q816-615 805.711-604.5q-10.29 10.5-25.5 10.5Zm-600 150Q165-444 154.5-454.289q-10.5-10.29-10.5-25.5Q144-495 154.289-505.5q10.29-10.5 25.5-10.5Q195-516 205.5-505.711q10.5 10.29 10.5 25.5Q216-465 205.711-454.5q-10.29 10.5-25.5 10.5Zm600 0Q765-444 754.5-454.289q-10.5-10.29-10.5-25.5Q744-495 754.289-505.5q10.29-10.5 25.5-10.5Q795-516 805.5-505.711q10.5 10.29 10.5 25.5Q816-465 805.711-454.5q-10.29 10.5-25.5 10.5Zm-600 150Q165-294 154.5-304.289q-10.5-10.29-10.5-25.5Q144-345 154.289-355.5q10.29-10.5 25.5-10.5Q195-366 205.5-355.711q10.5 10.29 10.5 25.5Q216-315 205.711-304.5q-10.29 10.5-25.5 10.5Zm600 0Q765-294 754.5-304.289q-10.5-10.29-10.5-25.5Q744-345 754.289-355.5q10.29-10.5 25.5-10.5Q795-366 805.5-355.711q10.5 10.29 10.5 25.5Q816-315 805.711-304.5q-10.29 10.5-25.5 10.5ZM180-144q-15.3 0-25.65-10.289-10.35-10.29-10.35-25.5Q144-195 154.35-205.5 164.7-216 180-216h600q15.3 0 25.65 10.289 10.35 10.29 10.35 25.5Q816-165 805.65-154.5 795.3-144 780-144H180Z"/></svg>

<svg xmlns="http://www.w3.org/2000/svg" height="20" viewBox="0 -960 960 960" width="20"><path d="M480.21-594q-15.21 0-25.71-10.29t-10.5-25.5q0-15.21 10.29-25.71t25.5-10.5q15.21 0 25.71 10.29t10.5 25.5q0 15.21-10.29 25.71t-25.5 10.5Zm-150 150q-15.21 0-25.71-10.29t-10.5-25.5q0-15.21 10.29-25.71t25.5-10.5q15.21 0 25.71 10.29t10.5 25.5q0 15.21-10.29 25.71t-25.5 10.5Zm150 0q-15.21 0-25.71-10.29t-10.5-25.5q0-15.21 10.29-25.71t25.5-10.5q15.21 0 25.71 10.29t10.5 25.5q0 15.21-10.29 25.71t-25.5 10.5Zm150 0q-15.21 0-25.71-10.29t-10.5-25.5q0-15.21 10.29-25.71t25.5-10.5q15.21 0 25.71 10.29t10.5 25.5q0 15.21-10.29 25.71t-25.5 10.5Zm-150 150q-15.21 0-25.71-10.29t-10.5-25.5q0-15.21 10.29-25.71t25.5-10.5q15.21 0 25.71 10.29t10.5 25.5q0 15.21-10.29 25.71t-25.5 10.5Zm-300-450q-15.21 0-25.71-10.29t-10.5-25.5q0-15.21 10.29-25.71t25.5-10.5q15.21 0 25.71 10.29t10.5 25.5q0 15.21-10.29 25.71t-25.5 10.5Zm150 0q-15.21 0-25.71-10.29t-10.5-25.5q0-15.21 10.29-25.71t25.5-10.5q15.21 0 25.71 10.29t10.5 25.5q0 15.21-10.29 25.71t-25.5 10.5Zm150 0q-15.21 0-25.71-10.29t-10.5-25.5q0-15.21 10.29-25.71t25.5-10.5q15.21 0 25.71 10.29t10.5 25.5q0 15.21-10.29 25.71t-25.5 10.5Zm150 0q-15.21 0-25.71-10.29t-10.5-25.5q0-15.21 10.29-25.71t25.5-10.5q15.21 0 25.71 10.29t10.5 25.5q0 15.21-10.29 25.71t-25.5 10.5Zm150 0q-15.21 0-25.71-10.29t-10.5-25.5q0-15.21 10.29-25.71t25.5-10.5q15.21 0 25.71 10.29t10.5 25.5q0 15.21-10.29 25.71t-25.5 10.5Zm-600 150q-15.21 0-25.71-10.29t-10.5-25.5q0-15.21 10.29-25.71t25.5-10.5q15.21 0 25.71 10.29t10.5 25.5q0 15.21-10.29 25.71t-25.5 10.5Zm600 0q-15.21 0-25.71-10.29t-10.5-25.5q0-15.21 10.29-25.71t25.5-10.5q15.21 0 25.71 10.29t10.5 25.5q0 15.21-10.29 25.71t-25.5 10.5Zm-600 150q-15.21 0-25.71-10.29t-10.5-25.5q0-15.21 10.29-25.71t25.5-10.5q15.21 0 25.71 10.29t10.5 25.5q0 15.21-10.29 25.71t-25.5 10.5Zm600 0q-15.21 0-25.71-10.29t-10.5-25.5q0-15.21 10.29-25.71t25.5-10.5q15.21 0 25.71 10.29t10.5 25.5q0 15.21-10.29 25.71t-25.5 10.5Zm-600 150q-15.21 0-25.71-10.29t-10.5-25.5q0-15.21 10.29-25.71t25.5-10.5q15.21 0 25.71 10.29t10.5 25.5q0 15.21-10.29 25.71t-25.5 10.5Zm600 0q-15.21 0-25.71-10.29t-10.5-25.5q0-15.21 10.29-25.71t25.5-10.5q15.21 0 25.71 10.29t10.5 25.5q0 15.21-10.29 25.71t-25.5 10.5ZM180-144q-15.3 0-25.65-10.29Q144-164.58 144-179.79t10.35-25.71Q164.7-216 180-216h600q15.3 0 25.65 10.29Q816-195.42 816-180.21t-10.35 25.71Q795.3-144 780-144H180Z"/></svg>
